!!!COM: Henri Reber
!!!CNT: Francais
!!!TXO: Francais
!!!OTL: Le Serment
!!!ODT: 1834/
!!LYR: Marcelline Desbordes-Valmore
!!!ENC: Jacob Pegg
!!!YOR: Romantic French Song 1830-1870, David Tunley, ed., New York: Garland Publishing, Inc., 1995, vol. 3
!!NB: Vocal melody and text only encoded.
!!NB: First instance of melodic material only encoded.
**kern	**silbe
*clef G2	*
*k[b-e-a-d-]	*
*M3/4	*
=4	=4
4r	.
4r	.
{4cc	{I-
=5	=5
4.cc	-do-
8b-	-le
(12dd-	de
12cc)	|
12b-	ma
=6	=6
4b-	vi-
8a-}	-e,}
8r	.
{8.a-	{Mon
16a-	tour-
=7	=7
(4a-	-ment,
8dd-)	|
8r	.
8.dd-	mon
16cc	plai-
=8	=8
(4an	-sir,
8b-)}	|}
8r	.
{4b-	{Dis
=9	=9
4.cc	moi
8b-	si
8.b-	ton
16a-	en-
=10	=10
4g	-vi-
4b-}	-e}
{4bn	{s'ac-
=11	=11
4cc	-cor-
4ee-	-de a\
8.ddn	mon
16g	de-
=12	=12
(4g	-sir?
4cc)}	|}
4r	.
=13	=13
{4b-	{Com-
(8cc	-me
8b-)	|
(8g	je
8e-)	|
=14	=14
(12e-	t'aime
12a-)	|
12b-	en
8cc	mes
8ff	beaux
4ee-}	jours,}
=15	=15
8r	.
{8dd-	{Je
8an	veux
8b-	t'ai-
8.cc	-mer
16b-	tou-
=16	=16
(4ee-	-jours.
4cc)}	|}
4r	.
=17	=17
{4b-	{Com-
(8cc	-me
8b-)	|
(8g	je
8e-)	|
=18	=18
(12e-	t'aime
12a-)	|
12b-	en
8cc	mes
8ff	beaux
4ee-}	jours,}
=19	=19
8r	.
{8ee-	{Je
8ddn	veux
8dd-	t'ai-
8.b-	-mer
16cc	tou-
=20	=20
4.a-}	-jours.}
8r	.
4r	.
*-	*-
